X: 188
T: The Warrior's Return  [C]
C: J. Scott Skinner
R: air, strathspey
Z: John Chambers <jc:trillian.mit.edu>
B: Celebrate Fifty Years of Dancing with the Boston Branch RSCDS (2000)
M: 4/4
L: 1/8
K: C
"G7"G2 \
| "C"G2 E2 G2 AB | "F"c3 A "C"G2 "G/B"ED | "Am"C2 DE "Dm"F2 A2 | "G"G6 "G7"G2 |
| "C"G2 E2 G2 AB | "F"c3 B "Dm"A2 Bc | "G"d2 BG "D7"D2 E^F | "G"G6 ||
"G"G2 \
| "Dm"F2 G2 "G/B"d3 F | "C"E2 "(G7)"G2 "C"c2 cB | "F"A2 AB c2 d2 | "E"e6 cB |
| "F"A>^G AB "Dm"dc BA | "C"G2 E2 "(Am)"G2 ce | "C"g2 ec "G7"G2 AB | "C"c2-"F"c2-"C"c2 |]

%%sep 1 1 500

